-----BEGIN PGP SIGNATURE-----

iQIzBAABCgAdFiEE3eoMHS6JU0M5cZknplYKSqV3KZ0FAmqaCEQACgkQplYKSqV3
KZ1fXg//XKEG8bhSsT84i3dr6hDf4kDo0/JKQvQjLLxtEbg2NXtrZgqfbzLxqSs4
T0iOgeXJKudDJ32lXrJWLtAj/n99qzPsgCygCx0kOlY+MNh+lSRP/3CXHba72S9R
ohpWaUyTxKbosRZSKC14qxzGIHfxqEVB7ye7mg4/qHkZU0AuJyYcUCRr+XFMEP8F
DcZKTU0Lqtp9+KpE7TJxz923POrkOX4a3czLHY7iMVRYUhtmJSp4aMdPPekbs3Jb
zXwAjGh3PSNtd1HKKipLs6kwcsueVk0RE16hLsUd1ua/3oz6w32tPJo7nK8/Y2vD
2kml/45WCHv3XaFiE+SUeweE9J2fc57j5ratlk/BtCxvrT8Ub+0v/CPXrrMnQmWA
LBUlJX117Sp5L39Ez+6UacAEdQTKsVLeJGlWBT8CHIEOpfY6c17umepYpZMvEbaq
eGuTG8X/Qvokk+S/FmHG/lsxgLwQP8NTPdha6j/xE+70T1X/Di7qhUTyyh6po5K+
rG/Uu5QsfkkfFkQUeQtG7fLwLhgeiz6Zr4E0ep2hJJxpauhbEOu/m6dl0/AZs4fA
+FXpMjMGlDqYI+bXP2eYCQE1wQNlh50EzluvgsO57OpFQZRuOf7Rm3ub/7ARtyQa
KdvMlVHJXQgeGa7UNyHK0oc3+7m48oaGRxsMqY9iKFIDiCYGZbk=
=LH1L
-----END PGP SIGNATURE-----
